X:1
T: General McKay
C:Donald Dow
R:Reel
Q: 232
K:C
M:4/4
L:1/8
|:e|cC CE G3_B|AF EC DF _B,D|C1/2D1/2E1/2F1/2 GE G2 cG|Aa gf ec ce|
cC CE G3_B|AF EC DF _B,D|C1/2D1/2E1/2F1/2 GE G2 cG|Aa gf ec ce|
c1/2d1/2e1/2f1/2 gc ac gc|ec ge fd de|c1/2d1/2e1/2f1/2 gc ac gc|ec gc Gc ce|
c1/2d1/2e1/2f1/2 gc ac gc|ec ge Bc df|ec GE FA G_B|Aa gf ec c:|
